X: 245
T: Song of the Famine
C: Teton Sioux band 1911-1914
N: Derived from sioux240.krn
O: South Dakota, U.S.A.
N: Teton Sioux Music by Frances Densmore, 1918
Z: transcribed to **kern format by Craig Sapp
L: 1/8
M: 2/4
Q: 1/4=58
K: Ab clef=bass
%%linebreak <none>
F< F F F [I:setbarnb 2]| 
F/ E/ F F/ E/ F/ E/ | 
C CC2 | 
F F (3C B, C ||  
[M:3/4]C< B, (3C B, C B,/ A,/ A,/ F,/ | 
F,4F, F, ||  
[M:2/4]C C B, B,/ A,/ | 
B,2A, A, | 
A,2(3:2:1F, F, (3:2:1F,/ | 
F,4 ||  
[M:3/4]F,4F,/ F,3/ ||  
[M:2/4]C< C C (C/ B,/) | 
C< C (3(C B,) A, ||  
[M:3/4]A,< F,F,2F, F, ||  
[M:2/4]B,< B,B,2 | 
C< B, A, B, | 
C< B, B,/ A,3/ ||  
[M:3/4]A, A, A,< F,F,2 | 
F,4F,2 |]  
